X:16
T:11a. Cloverleaf
C:Larry Mallette
R:Double jig
M:6/8
Q:320
K:G
"Double Jig"
d|edB~G3|DEG ~A3|dBe dBe|dBA GED|
dBG ~E3|DEG ~A3|dBg edB|1dBA G2:|2dBA GAB||
deg ~e3|dBA ~G3|ABG ABG|AGE D2G|
ABd ~e3|dBA ~G3|dBg edB|1dBA GAB:|2dBA G2|]





